svg/color/oseth.svg

<svg xmlns="http://www.w3.org/2000/svg" width="1801" height="2176" fill="none" viewBox="0 0 1801 2176"><path fill="url(#oseth_svg-a)" d="M900.48 2175.2.885 1715.89 900.48 1274.7z"/><path stroke="#5A9DDB" stroke-miterlimit="10" stroke-width=".05" d="M900.48 2175.2.885 1716.8l900.501-442.1v900.5z"/><path fill="url(#oseth_svg-b)" d="M900.405 1274.7 1800 1718.61 900.405 2175.2z"/><path stroke="url(#oseth_svg-c)" stroke-miterlimit="10" stroke-width=".05" d="M900.405 1274.7 1800 1718.61 901.311 2175.2v-900.5z"/><path fill="url(#oseth_svg-d)" d="m1432.19 1015.63 367.81 702.1-899.595-443.91z"/><path stroke="#3FAEFF" stroke-miterlimit="10" stroke-width=".05" d="m1433.1 1015.52 366.9 702.1-899.595-443 531.785-260.01z"/><path fill="url(#oseth_svg-e)" d="m369.622 1013.88 530.878 260.9L0 1715.07z"/><path stroke="#69A5FF" stroke-miterlimit="10" stroke-width=".05" d="m369.601 1013.88 531.785 260-900.5 442.1z"/><path fill="url(#oseth_svg-f)" d="M900.54 1274.5V1.66L370.568 1014.5l531.784 260z"/><path stroke="#88AABD" stroke-miterlimit="10" stroke-width=".05" d="M900.504 1274.67V.922L371.438 1013.76l530.878 260.91z"/><path fill="url(#oseth_svg-g)" d="M900.405 1274.5V1.66L1432.19 1015.4z"/><path stroke="#51A2ED" stroke-miterlimit="10" stroke-width=".05" d="M900.405 1274.67V.922L1433.1 1015.57l-532.695 258.19z"/><path fill="url(#oseth_svg-h)" d="M900.48 2175.2.885 1715.89 900.48 1274.7z"/><path stroke="#5A9DDB" stroke-miterlimit="10" stroke-width=".05" d="M900.48 2175.2.885 1716.8l900.501-442.1v900.5z"/><path fill="url(#oseth_svg-i)" d="M900.405 1274.7 1800 1718.61 900.405 2175.2z"/><path stroke="url(#oseth_svg-j)" stroke-miterlimit="10" stroke-width=".05" d="M900.405 1274.7 1800 1718.61 901.311 2175.2v-900.5z"/><path fill="url(#oseth_svg-k)" d="m1432.19 1015.63 367.81 702.1-899.595-443.91z"/><path stroke="#3FAEFF" stroke-miterlimit="10" stroke-width=".05" d="m1433.1 1015.52 366.9 702.1-899.595-443 531.785-260.01z"/><path fill="url(#oseth_svg-l)" d="m369.622 1013.88 530.878 260.9L0 1715.07z"/><path stroke="#69A5FF" stroke-miterlimit="10" stroke-width=".05" d="m369.601 1013.88 531.785 260-900.5 442.1z"/><path fill="url(#oseth_svg-m)" d="M900.54 1274.5V1.66L370.568 1014.5l531.784 260z"/><path stroke="#88AABD" stroke-miterlimit="10" stroke-width=".05" d="M900.504 1274.67V.922L371.438 1013.76l530.878 260.91z"/><path fill="url(#oseth_svg-n)" d="M900.405 1274.5V1.66L1432.19 1015.4z"/><path stroke="#51A2ED" stroke-miterlimit="10" stroke-width=".05" d="M900.405 1274.67V.922L1433.1 1015.57l-532.695 258.19z"/><path fill="url(#oseth_svg-o)" d="M900.48 2175.2.885 1715.89 900.48 1274.7z"/><path stroke="#5A9DDB" stroke-miterlimit="10" stroke-width=".05" d="M900.48 2175.2.885 1716.8l900.501-442.1v900.5z"/><path fill="url(#oseth_svg-p)" d="M900.405 1274.7 1800 1718.61 900.405 2175.2z"/><path stroke="url(#oseth_svg-q)" stroke-miterlimit="10" stroke-width=".05" d="M900.405 1274.7 1800 1718.61 901.311 2175.2v-900.5z"/><path fill="url(#oseth_svg-r)" d="m1432.19 1015.63 367.81 702.1-899.595-443.91z"/><path stroke="#3FAEFF" stroke-miterlimit="10" stroke-width=".05" d="m1433.1 1015.52 366.9 702.1-899.595-443 531.785-260.01z"/><path fill="url(#oseth_svg-s)" d="m369.622 1013.88 530.878 260.9L0 1715.07z"/><path stroke="#69A5FF" stroke-miterlimit="10" stroke-width=".05" d="m369.601 1013.88 531.785 260-900.5 442.1z"/><path fill="url(#oseth_svg-t)" d="M900.54 1274.5V1.66L370.568 1014.5l531.784 260z"/><path stroke="#88AABD" stroke-miterlimit="10" stroke-width=".05" d="M900.504 1274.67V.922L371.438 1013.76l530.878 260.91z"/><path fill="url(#oseth_svg-u)" d="M900.405 1274.5V1.66L1432.19 1015.4z"/><path stroke="#51A2ED" stroke-miterlimit="10" stroke-width=".05" d="M900.405 1274.67V.922L1433.1 1015.57l-532.695 258.19z"/><path fill="url(#oseth_svg-v)" d="M900.48 2175.2.885 1715.89 900.48 1274.7z"/><path stroke="#5A9DDB" stroke-miterlimit="10" stroke-width=".05" d="M900.48 2175.2.885 1716.8l900.501-442.1v900.5z"/><path fill="url(#oseth_svg-w)" d="M900.405 1274.7 1800 1718.61 900.405 2175.2z"/><path stroke="url(#oseth_svg-x)" stroke-miterlimit="10" stroke-width=".05" d="M900.405 1274.7 1800 1718.61 901.311 2175.2v-900.5z"/><path fill="url(#oseth_svg-y)" d="m1432.19 1015.63 367.81 702.1-899.595-443.91z"/><path stroke="#3FAEFF" stroke-miterlimit="10" stroke-width=".05" d="m1433.1 1015.52 366.9 702.1-899.595-443 531.785-260.01z"/><path fill="url(#oseth_svg-z)" d="m369.622 1013.88 530.878 260.9L0 1715.07z"/><path stroke="#69A5FF" stroke-miterlimit="10" stroke-width=".05" d="m369.601 1013.88 531.785 260-900.5 442.1z"/><path fill="url(#oseth_svg-A)" d="M900.54 1274.5V1.66L370.568 1014.5l531.784 260z"/><path stroke="#88AABD" stroke-miterlimit="10" stroke-width=".05" d="M900.504 1274.67V.922L371.438 1013.76l530.878 260.91z"/><path fill="url(#oseth_svg-B)" d="M900.405 1274.5V1.66L1432.19 1015.4z"/><path stroke="#51A2ED" stroke-miterlimit="10" stroke-width=".05" d="M900.405 1274.67V.922L1433.1 1015.57l-532.695 258.19z"/><defs><linearGradient id="oseth_svg-a" x1="195.662" x2="1115.19" y1="1413.31" y2="1876.24" gradientUnits="userSpaceOnUse"><stop stop-color="#45C7FF"/><stop offset="1" stop-color="#0E2450"/></linearGradient><linearGradient id="oseth_svg-b" x1="893.158" x2="1561.74" y1="2264.89" y2="1285.57" gradientUnits="userSpaceOnUse"><stop stop-color="#3B9CF7"/><stop offset=".2" stop-color="#579CED"/><stop offset=".703" stop-color="#3789D7"/><stop offset="1" stop-color="#A5C4DA"/></linearGradient><linearGradient id="oseth_svg-c" x1="901.311" x2="1800.91" y1="-7869.82" y2="-7869.82" gradientUnits="userSpaceOnUse"><stop stop-color="#4FB8D9"/><stop offset=".6" stop-color="#39D8FB"/><stop offset="1" stop-color="#3F5FBC"/></linearGradient><linearGradient id="oseth_svg-d" x1="1289.96" x2="1992.06" y1="1482.19" y2="707.615" gradientUnits="userSpaceOnUse"><stop stop-color="#33B6FF"/><stop offset="1" stop-color="#6562FD"/></linearGradient><linearGradient id="oseth_svg-e" x1="454.78" x2="553.527" y1="1446.91" y2="1149.77" gradientUnits="userSpaceOnUse"><stop stop-color="#4AB0EA"/><stop offset="1" stop-color="#6D7F9B"/></linearGradient><linearGradient id="oseth_svg-f" x1="1021.94" x2="555.378" y1="637.627" y2="637.627" gradientUnits="userSpaceOnUse"><stop stop-color="#695CFB"/><stop offset="1" stop-color="#479AFD"/></linearGradient><linearGradient id="oseth_svg-g" x1="1051.7" x2="1381.46" y1="784.389" y2="1096.94" gradientUnits="userSpaceOnUse"><stop stop-color="#57E"/><stop offset="1" stop-color="#84A6FF"/></linearGradient><linearGradient id="oseth_svg-h" x1="195.662" x2="1115.19" y1="1413.31" y2="1876.24" gradientUnits="userSpaceOnUse"><stop stop-color="#45C7FF"/><stop offset="1" stop-color="#0E2450"/></linearGradient><linearGradient id="oseth_svg-i" x1="893.158" x2="1561.74" y1="2264.89" y2="1285.57" gradientUnits="userSpaceOnUse"><stop stop-color="#3B9CF7"/><stop offset=".2" stop-color="#579CED"/><stop offset=".703" stop-color="#3789D7"/><stop offset="1" stop-color="#A5C4DA"/></linearGradient><linearGradient id="oseth_svg-j" x1="901.311" x2="1800.91" y1="-7869.82" y2="-7869.82" gradientUnits="userSpaceOnUse"><stop stop-color="#4FB8D9"/><stop offset=".6" stop-color="#39D8FB"/><stop offset="1" stop-color="#3F5FBC"/></linearGradient><linearGradient id="oseth_svg-k" x1="1289.96" x2="1992.06" y1="1482.19" y2="707.615" gradientUnits="userSpaceOnUse"><stop stop-color="#33B6FF"/><stop offset="1" stop-color="#6562FD"/></linearGradient><linearGradient id="oseth_svg-l" x1="454.78" x2="553.527" y1="1446.91" y2="1149.77" gradientUnits="userSpaceOnUse"><stop stop-color="#4AB0EA"/><stop offset="1" stop-color="#6D7F9B"/></linearGradient><linearGradient id="oseth_svg-m" x1="1021.94" x2="555.378" y1="637.627" y2="637.627" gradientUnits="userSpaceOnUse"><stop stop-color="#695CFB"/><stop offset="1" stop-color="#479AFD"/></linearGradient><linearGradient id="oseth_svg-n" x1="1051.7" x2="1381.46" y1="784.389" y2="1096.94" gradientUnits="userSpaceOnUse"><stop stop-color="#57E"/><stop offset="1" stop-color="#84A6FF"/></linearGradient><linearGradient id="oseth_svg-o" x1="195.662" x2="1115.19" y1="1413.31" y2="1876.24" gradientUnits="userSpaceOnUse"><stop stop-color="#45C7FF"/><stop offset="1" stop-color="#0E2450"/></linearGradient><linearGradient id="oseth_svg-p" x1="893.158" x2="1561.74" y1="2264.89" y2="1285.57" gradientUnits="userSpaceOnUse"><stop stop-color="#3B9CF7"/><stop offset=".2" stop-color="#579CED"/><stop offset=".703" stop-color="#3789D7"/><stop offset="1" stop-color="#A5C4DA"/></linearGradient><linearGradient id="oseth_svg-q" x1="901.311" x2="1800.91" y1="-7869.82" y2="-7869.82" gradientUnits="userSpaceOnUse"><stop stop-color="#4FB8D9"/><stop offset=".6" stop-color="#39D8FB"/><stop offset="1" stop-color="#3F5FBC"/></linearGradient><linearGradient id="oseth_svg-r" x1="1289.96" x2="1992.06" y1="1482.19" y2="707.615" gradientUnits="userSpaceOnUse"><stop stop-color="#33B6FF"/><stop offset="1" stop-color="#6562FD"/></linearGradient><linearGradient id="oseth_svg-s" x1="454.78" x2="553.527" y1="1446.91" y2="1149.77" gradientUnits="userSpaceOnUse"><stop stop-color="#4AB0EA"/><stop offset="1" stop-color="#6D7F9B"/></linearGradient><linearGradient id="oseth_svg-t" x1="1021.94" x2="555.378" y1="637.627" y2="637.627" gradientUnits="userSpaceOnUse"><stop stop-color="#695CFB"/><stop offset="1" stop-color="#479AFD"/></linearGradient><linearGradient id="oseth_svg-u" x1="1051.7" x2="1381.46" y1="784.389" y2="1096.94" gradientUnits="userSpaceOnUse"><stop stop-color="#57E"/><stop offset="1" stop-color="#84A6FF"/></linearGradient><linearGradient id="oseth_svg-v" x1="195.662" x2="1115.19" y1="1413.31" y2="1876.24" gradientUnits="userSpaceOnUse"><stop stop-color="#45C7FF"/><stop offset="1" stop-color="#0E2450"/></linearGradient><linearGradient id="oseth_svg-w" x1="893.158" x2="1561.74" y1="2264.89" y2="1285.57" gradientUnits="userSpaceOnUse"><stop stop-color="#3B9CF7"/><stop offset=".2" stop-color="#579CED"/><stop offset=".703" stop-color="#3789D7"/><stop offset="1" stop-color="#A5C4DA"/></linearGradient><linearGradient id="oseth_svg-x" x1="901.311" x2="1800.91" y1="-7869.82" y2="-7869.82" gradientUnits="userSpaceOnUse"><stop stop-color="#4FB8D9"/><stop offset=".6" stop-color="#39D8FB"/><stop offset="1" stop-color="#3F5FBC"/></linearGradient><linearGradient id="oseth_svg-y" x1="1289.96" x2="1992.06" y1="1482.19" y2="707.615" gradientUnits="userSpaceOnUse"><stop stop-color="#33B6FF"/><stop offset="1" stop-color="#6562FD"/></linearGradient><linearGradient id="oseth_svg-z" x1="454.78" x2="553.527" y1="1446.91" y2="1149.77" gradientUnits="userSpaceOnUse"><stop stop-color="#4AB0EA"/><stop offset="1" stop-color="#6D7F9B"/></linearGradient><linearGradient id="oseth_svg-A" x1="1021.94" x2="555.378" y1="637.627" y2="637.627" gradientUnits="userSpaceOnUse"><stop stop-color="#695CFB"/><stop offset="1" stop-color="#479AFD"/></linearGradient><linearGradient id="oseth_svg-B" x1="1051.7" x2="1381.46" y1="784.389" y2="1096.94" gradientUnits="userSpaceOnUse"><stop stop-color="#57E"/><stop offset="1" stop-color="#84A6FF"/></linearGradient></defs></svg>

<svg width="1801" height="2176" viewBox="0 0 1801 2176" fill="none" xmlns="http://www.w3.org/2000/svg">
<path d="M900.48 2175.2L0.885498 1715.89L900.48 1274.7V2175.2Z" fill="url(#paint0_linear_7595_59544)"/>
<path d="M900.48 2175.2L0.885498 1716.8L901.386 1274.7V2175.2H900.48Z" stroke="#5A9DDB" stroke-width="0.05" stroke-miterlimit="10"/>
<path d="M900.405 1274.7L1800 1718.61L900.405 2175.2V1274.7Z" fill="url(#paint1_linear_7595_59544)"/>
<path d="M900.405 1274.7L1800 1718.61L901.311 2175.2V1274.7H900.405Z" stroke="url(#paint2_linear_7595_59544)" stroke-width="0.05" stroke-miterlimit="10"/>
<path d="M1432.19 1015.63L1800 1717.73L900.405 1273.82L1432.19 1015.63Z" fill="url(#paint3_linear_7595_59544)"/>
<path d="M1433.1 1015.52L1800 1717.62L900.405 1274.62L1432.19 1014.61L1433.1 1015.52Z" stroke="#3FAEFF" stroke-width="0.05" stroke-miterlimit="10"/>
<path d="M369.622 1013.88L900.5 1274.78L0 1715.07L369.622 1013.88V1013.88Z" fill="url(#paint4_linear_7595_59544)"/>
<path d="M369.601 1013.88L901.386 1273.88L0.885498 1715.98L369.601 1013.88V1013.88Z" stroke="#69A5FF" stroke-width="0.05" stroke-miterlimit="10"/>
<path d="M900.54 1274.5V1.66016L370.568 1014.5L902.352 1274.5H900.54Z" fill="url(#paint5_linear_7595_59544)"/>
<path d="M900.504 1274.67V0.921875L371.438 1013.76L902.316 1274.67H900.504Z" stroke="#88AABD" stroke-width="0.05" stroke-miterlimit="10"/>
<path d="M900.405 1274.5V1.66016L1432.19 1015.4L900.405 1274.5Z" fill="url(#paint6_linear_7595_59544)"/>
<path d="M900.405 1274.67V0.921875L1433.1 1015.57L900.405 1273.76V1274.67Z" stroke="#51A2ED" stroke-width="0.05" stroke-miterlimit="10"/>
<path d="M900.48 2175.2L0.885498 1715.89L900.48 1274.7V2175.2Z" fill="url(#paint7_linear_7595_59544)"/>
<path d="M900.48 2175.2L0.885498 1716.8L901.386 1274.7V2175.2H900.48Z" stroke="#5A9DDB" stroke-width="0.05" stroke-miterlimit="10"/>
<path d="M900.405 1274.7L1800 1718.61L900.405 2175.2V1274.7Z" fill="url(#paint8_linear_7595_59544)"/>
<path d="M900.405 1274.7L1800 1718.61L901.311 2175.2V1274.7H900.405Z" stroke="url(#paint9_linear_7595_59544)" stroke-width="0.05" stroke-miterlimit="10"/>
<path d="M1432.19 1015.63L1800 1717.73L900.405 1273.82L1432.19 1015.63Z" fill="url(#paint10_linear_7595_59544)"/>
<path d="M1433.1 1015.52L1800 1717.62L900.405 1274.62L1432.19 1014.61L1433.1 1015.52Z" stroke="#3FAEFF" stroke-width="0.05" stroke-miterlimit="10"/>
<path d="M369.622 1013.88L900.5 1274.78L0 1715.07L369.622 1013.88V1013.88Z" fill="url(#paint11_linear_7595_59544)"/>
<path d="M369.601 1013.88L901.386 1273.88L0.885498 1715.98L369.601 1013.88V1013.88Z" stroke="#69A5FF" stroke-width="0.05" stroke-miterlimit="10"/>
<path d="M900.54 1274.5V1.66016L370.568 1014.5L902.352 1274.5H900.54Z" fill="url(#paint12_linear_7595_59544)"/>
<path d="M900.504 1274.67V0.921875L371.438 1013.76L902.316 1274.67H900.504Z" stroke="#88AABD" stroke-width="0.05" stroke-miterlimit="10"/>
<path d="M900.405 1274.5V1.66016L1432.19 1015.4L900.405 1274.5Z" fill="url(#paint13_linear_7595_59544)"/>
<path d="M900.405 1274.67V0.921875L1433.1 1015.57L900.405 1273.76V1274.67Z" stroke="#51A2ED" stroke-width="0.05" stroke-miterlimit="10"/>
<path d="M900.48 2175.2L0.885498 1715.89L900.48 1274.7V2175.2Z" fill="url(#paint14_linear_7595_59544)"/>
<path d="M900.48 2175.2L0.885498 1716.8L901.386 1274.7V2175.2H900.48Z" stroke="#5A9DDB" stroke-width="0.05" stroke-miterlimit="10"/>
<path d="M900.405 1274.7L1800 1718.61L900.405 2175.2V1274.7Z" fill="url(#paint15_linear_7595_59544)"/>
<path d="M900.405 1274.7L1800 1718.61L901.311 2175.2V1274.7H900.405Z" stroke="url(#paint16_linear_7595_59544)" stroke-width="0.05" stroke-miterlimit="10"/>
<path d="M1432.19 1015.63L1800 1717.73L900.405 1273.82L1432.19 1015.63Z" fill="url(#paint17_linear_7595_59544)"/>
<path d="M1433.1 1015.52L1800 1717.62L900.405 1274.62L1432.19 1014.61L1433.1 1015.52Z" stroke="#3FAEFF" stroke-width="0.05" stroke-miterlimit="10"/>
<path d="M369.622 1013.88L900.5 1274.78L0 1715.07L369.622 1013.88V1013.88Z" fill="url(#paint18_linear_7595_59544)"/>
<path d="M369.601 1013.88L901.386 1273.88L0.885498 1715.98L369.601 1013.88V1013.88Z" stroke="#69A5FF" stroke-width="0.05" stroke-miterlimit="10"/>
<path d="M900.54 1274.5V1.66016L370.568 1014.5L902.352 1274.5H900.54Z" fill="url(#paint19_linear_7595_59544)"/>
<path d="M900.504 1274.67V0.921875L371.438 1013.76L902.316 1274.67H900.504Z" stroke="#88AABD" stroke-width="0.05" stroke-miterlimit="10"/>
<path d="M900.405 1274.5V1.66016L1432.19 1015.4L900.405 1274.5Z" fill="url(#paint20_linear_7595_59544)"/>
<path d="M900.405 1274.67V0.921875L1433.1 1015.57L900.405 1273.76V1274.67Z" stroke="#51A2ED" stroke-width="0.05" stroke-miterlimit="10"/>
<path d="M900.48 2175.2L0.885498 1715.89L900.48 1274.7V2175.2Z" fill="url(#paint21_linear_7595_59544)"/>
<path d="M900.48 2175.2L0.885498 1716.8L901.386 1274.7V2175.2H900.48Z" stroke="#5A9DDB" stroke-width="0.05" stroke-miterlimit="10"/>
<path d="M900.405 1274.7L1800 1718.61L900.405 2175.2V1274.7Z" fill="url(#paint22_linear_7595_59544)"/>
<path d="M900.405 1274.7L1800 1718.61L901.311 2175.2V1274.7H900.405Z" stroke="url(#paint23_linear_7595_59544)" stroke-width="0.05" stroke-miterlimit="10"/>
<path d="M1432.19 1015.63L1800 1717.73L900.405 1273.82L1432.19 1015.63Z" fill="url(#paint24_linear_7595_59544)"/>
<path d="M1433.1 1015.52L1800 1717.62L900.405 1274.62L1432.19 1014.61L1433.1 1015.52Z" stroke="#3FAEFF" stroke-width="0.05" stroke-miterlimit="10"/>
<path d="M369.622 1013.88L900.5 1274.78L0 1715.07L369.622 1013.88V1013.88Z" fill="url(#paint25_linear_7595_59544)"/>
<path d="M369.601 1013.88L901.386 1273.88L0.885498 1715.98L369.601 1013.88V1013.88Z" stroke="#69A5FF" stroke-width="0.05" stroke-miterlimit="10"/>
<path d="M900.54 1274.5V1.66016L370.568 1014.5L902.352 1274.5H900.54Z" fill="url(#paint26_linear_7595_59544)"/>
<path d="M900.504 1274.67V0.921875L371.438 1013.76L902.316 1274.67H900.504Z" stroke="#88AABD" stroke-width="0.05" stroke-miterlimit="10"/>
<path d="M900.405 1274.5V1.66016L1432.19 1015.4L900.405 1274.5Z" fill="url(#paint27_linear_7595_59544)"/>
<path d="M900.405 1274.67V0.921875L1433.1 1015.57L900.405 1273.76V1274.67Z" stroke="#51A2ED" stroke-width="0.05" stroke-miterlimit="10"/>
<defs>
<linearGradient id="paint0_linear_7595_59544" x1="195.662" y1="1413.31" x2="1115.19" y2="1876.24" gradientUnits="userSpaceOnUse">
<stop stop-color="#45C7FF"/>
<stop offset="1" stop-color="#0E2450"/>
</linearGradient>
<linearGradient id="paint1_linear_7595_59544" x1="893.158" y1="2264.89" x2="1561.74" y2="1285.57" gradientUnits="userSpaceOnUse">
<stop stop-color="#3B9CF7"/>
<stop offset="0.2" stop-color="#579CED"/>
<stop offset="0.703125" stop-color="#3789D7"/>
<stop offset="1" stop-color="#A5C4DA"/>
</linearGradient>
<linearGradient id="paint2_linear_7595_59544" x1="901.311" y1="-7869.82" x2="1800.91" y2="-7869.82" gradientUnits="userSpaceOnUse">
<stop stop-color="#4FB8D9"/>
<stop offset="0.6" stop-color="#39D8FB"/>
<stop offset="1" stop-color="#3F5FBC"/>
</linearGradient>
<linearGradient id="paint3_linear_7595_59544" x1="1289.96" y1="1482.19" x2="1992.06" y2="707.615" gradientUnits="userSpaceOnUse">
<stop stop-color="#33B6FF"/>
<stop offset="1" stop-color="#6562FD"/>
</linearGradient>
<linearGradient id="paint4_linear_7595_59544" x1="454.78" y1="1446.91" x2="553.527" y2="1149.77" gradientUnits="userSpaceOnUse">
<stop stop-color="#4AB0EA"/>
<stop offset="1" stop-color="#6D7F9B"/>
</linearGradient>
<linearGradient id="paint5_linear_7595_59544" x1="1021.94" y1="637.627" x2="555.378" y2="637.627" gradientUnits="userSpaceOnUse">
<stop stop-color="#695CFB"/>
<stop offset="1" stop-color="#479AFD"/>
</linearGradient>
<linearGradient id="paint6_linear_7595_59544" x1="1051.7" y1="784.389" x2="1381.46" y2="1096.94" gradientUnits="userSpaceOnUse">
<stop stop-color="#5577EE"/>
<stop offset="1" stop-color="#84A6FF"/>
</linearGradient>
<linearGradient id="paint7_linear_7595_59544" x1="195.662" y1="1413.31" x2="1115.19" y2="1876.24" gradientUnits="userSpaceOnUse">
<stop stop-color="#45C7FF"/>
<stop offset="1" stop-color="#0E2450"/>
</linearGradient>
<linearGradient id="paint8_linear_7595_59544" x1="893.158" y1="2264.89" x2="1561.74" y2="1285.57" gradientUnits="userSpaceOnUse">
<stop stop-color="#3B9CF7"/>
<stop offset="0.2" stop-color="#579CED"/>
<stop offset="0.703125" stop-color="#3789D7"/>
<stop offset="1" stop-color="#A5C4DA"/>
</linearGradient>
<linearGradient id="paint9_linear_7595_59544" x1="901.311" y1="-7869.82" x2="1800.91" y2="-7869.82" gradientUnits="userSpaceOnUse">
<stop stop-color="#4FB8D9"/>
<stop offset="0.6" stop-color="#39D8FB"/>
<stop offset="1" stop-color="#3F5FBC"/>
</linearGradient>
<linearGradient id="paint10_linear_7595_59544" x1="1289.96" y1="1482.19" x2="1992.06" y2="707.615" gradientUnits="userSpaceOnUse">
<stop stop-color="#33B6FF"/>
<stop offset="1" stop-color="#6562FD"/>
</linearGradient>
<linearGradient id="paint11_linear_7595_59544" x1="454.78" y1="1446.91" x2="553.527" y2="1149.77" gradientUnits="userSpaceOnUse">
<stop stop-color="#4AB0EA"/>
<stop offset="1" stop-color="#6D7F9B"/>
</linearGradient>
<linearGradient id="paint12_linear_7595_59544" x1="1021.94" y1="637.627" x2="555.378" y2="637.627" gradientUnits="userSpaceOnUse">
<stop stop-color="#695CFB"/>
<stop offset="1" stop-color="#479AFD"/>
</linearGradient>
<linearGradient id="paint13_linear_7595_59544" x1="1051.7" y1="784.389" x2="1381.46" y2="1096.94" gradientUnits="userSpaceOnUse">
<stop stop-color="#5577EE"/>
<stop offset="1" stop-color="#84A6FF"/>
</linearGradient>
<linearGradient id="paint14_linear_7595_59544" x1="195.662" y1="1413.31" x2="1115.19" y2="1876.24" gradientUnits="userSpaceOnUse">
<stop stop-color="#45C7FF"/>
<stop offset="1" stop-color="#0E2450"/>
</linearGradient>
<linearGradient id="paint15_linear_7595_59544" x1="893.158" y1="2264.89" x2="1561.74" y2="1285.57" gradientUnits="userSpaceOnUse">
<stop stop-color="#3B9CF7"/>
<stop offset="0.2" stop-color="#579CED"/>
<stop offset="0.703125" stop-color="#3789D7"/>
<stop offset="1" stop-color="#A5C4DA"/>
</linearGradient>
<linearGradient id="paint16_linear_7595_59544" x1="901.311" y1="-7869.82" x2="1800.91" y2="-7869.82" gradientUnits="userSpaceOnUse">
<stop stop-color="#4FB8D9"/>
<stop offset="0.6" stop-color="#39D8FB"/>
<stop offset="1" stop-color="#3F5FBC"/>
</linearGradient>
<linearGradient id="paint17_linear_7595_59544" x1="1289.96" y1="1482.19" x2="1992.06" y2="707.615" gradientUnits="userSpaceOnUse">
<stop stop-color="#33B6FF"/>
<stop offset="1" stop-color="#6562FD"/>
</linearGradient>
<linearGradient id="paint18_linear_7595_59544" x1="454.78" y1="1446.91" x2="553.527" y2="1149.77" gradientUnits="userSpaceOnUse">
<stop stop-color="#4AB0EA"/>
<stop offset="1" stop-color="#6D7F9B"/>
</linearGradient>
<linearGradient id="paint19_linear_7595_59544" x1="1021.94" y1="637.627" x2="555.378" y2="637.627" gradientUnits="userSpaceOnUse">
<stop stop-color="#695CFB"/>
<stop offset="1" stop-color="#479AFD"/>
</linearGradient>
<linearGradient id="paint20_linear_7595_59544" x1="1051.7" y1="784.389" x2="1381.46" y2="1096.94" gradientUnits="userSpaceOnUse">
<stop stop-color="#5577EE"/>
<stop offset="1" stop-color="#84A6FF"/>
</linearGradient>
<linearGradient id="paint21_linear_7595_59544" x1="195.662" y1="1413.31" x2="1115.19" y2="1876.24" gradientUnits="userSpaceOnUse">
<stop stop-color="#45C7FF"/>
<stop offset="1" stop-color="#0E2450"/>
</linearGradient>
<linearGradient id="paint22_linear_7595_59544" x1="893.158" y1="2264.89" x2="1561.74" y2="1285.57" gradientUnits="userSpaceOnUse">
<stop stop-color="#3B9CF7"/>
<stop offset="0.2" stop-color="#579CED"/>
<stop offset="0.703125" stop-color="#3789D7"/>
<stop offset="1" stop-color="#A5C4DA"/>
</linearGradient>
<linearGradient id="paint23_linear_7595_59544" x1="901.311" y1="-7869.82" x2="1800.91" y2="-7869.82" gradientUnits="userSpaceOnUse">
<stop stop-color="#4FB8D9"/>
<stop offset="0.6" stop-color="#39D8FB"/>
<stop offset="1" stop-color="#3F5FBC"/>
</linearGradient>
<linearGradient id="paint24_linear_7595_59544" x1="1289.96" y1="1482.19" x2="1992.06" y2="707.615" gradientUnits="userSpaceOnUse">
<stop stop-color="#33B6FF"/>
<stop offset="1" stop-color="#6562FD"/>
</linearGradient>
<linearGradient id="paint25_linear_7595_59544" x1="454.78" y1="1446.91" x2="553.527" y2="1149.77" gradientUnits="userSpaceOnUse">
<stop stop-color="#4AB0EA"/>
<stop offset="1" stop-color="#6D7F9B"/>
</linearGradient>
<linearGradient id="paint26_linear_7595_59544" x1="1021.94" y1="637.627" x2="555.378" y2="637.627" gradientUnits="userSpaceOnUse">
<stop stop-color="#695CFB"/>
<stop offset="1" stop-color="#479AFD"/>
</linearGradient>
<linearGradient id="paint27_linear_7595_59544" x1="1051.7" y1="784.389" x2="1381.46" y2="1096.94" gradientUnits="userSpaceOnUse">
<stop stop-color="#5577EE"/>
<stop offset="1" stop-color="#84A6FF"/>
</linearGradient>
</defs>
</svg>
